X:86
T:She Wants A Fellow
M:6/8
L:1/8
R:Jig
Z:C.G.P
K:D
c | d2DF2D | ABA ABc | d2A GFE | FDD Dfe | d2DF2D | ABA ABc | d2A GFE | FDDD2 :|
|: A | dcd Bcd | efd cBA | dcd efg | fdd def | gfg Bcd | efd cBA | d2A GFE | FDDD2 :|]
